X: 7684
T:Polska fr V\"asterg\"otland
R:Polska
M:3/4
N:A>A = ((3AA)A
O:Sweden
Z:photocopies from Suzanne Lind \& Louise Schultz
K:D
V:1
A>(c d)>(e f)>g | (aa | \
(3(af)(d- de) f>g | (3(ef)d- dc A2-| \
A>(c d)>(e f)>g | (aa |
(3(af)ud- due f>g | (e<c) d2 z2 :: \
e>(f g)>(a g)>f | (3(de)(f -fg) e2- |
e>(f g<a) vg>f | (3(de)(f- fg) (e2 | \
A)>(c d)>(e f)>g | (aa | \
(3(af)(d- de) f>g | (e<c) d2z2 :|
V:2
F>(A B)>(c d)>e | (f<g) e2 g>f | (3(fd)(A- Ac) d>e | (3:2:3A2(A2G2) F>E |\
F>(A B)>(c d)>e | (f<g) e2 g>f | (3(fd)(A- Ac) d>e | (A<G) F2z2 ::\
c>(d e)>(f e)>d | (3(Ac)(d- de) c2- | c>(d e<f) ve>d | (3(Ac)(d- de) c2 |\
vF>A- B>(c d)>e | (f<g) e2 g>f | (3(fd)(A- Ac) d>e | (A<G) F2 z2 :|
